cellusarquivos/redes/whatsapp.svg

<svg width="32" height="32" viewBox="0 0 32 32" fill="none" xmlns="http://www.w3.org/2000/svg">
<g clip-path="url(#clip0_18_75)">
<path d="M27.202 4.6521C25.7349 3.17145 23.9879 1.99759 22.0626 1.19891C20.1373 0.40023 18.0723 -0.00728855 15.988 9.86611e-05C7.254 9.86611e-05 0.136 7.1161 0.128 15.8521C0.128 18.6501 0.86 21.3721 2.242 23.7821L0 32.0001L8.408 29.7961C10.734 31.0619 13.3399 31.7254 15.988 31.7261H15.996C24.732 31.7261 31.848 24.6101 31.856 15.8661C31.858 13.7822 31.4476 11.7185 30.6485 9.79386C29.8494 7.86924 28.6794 6.12176 27.202 4.6521ZM15.988 29.0421C13.626 29.0429 11.3074 28.4073 9.276 27.2021L8.796 26.9141L3.808 28.2221L5.14 23.3561L4.828 22.8541C3.50761 20.7547 2.80929 18.3242 2.814 15.8441C2.814 8.5921 8.728 2.6761 15.996 2.6761C17.7275 2.67299 19.4425 3.01265 21.042 3.67548C22.6416 4.33832 24.0942 5.31122 25.316 6.5381C26.5421 7.7602 27.514 9.21295 28.1758 10.8126C28.8377 12.4122 29.1762 14.127 29.172 15.8581C29.164 23.1361 23.25 29.0421 15.988 29.0421ZM23.218 19.1741C22.824 18.9761 20.878 18.0181 20.512 17.8821C20.148 17.7521 19.882 17.6841 19.622 18.0801C19.356 18.4741 18.596 19.3721 18.368 19.6301C18.14 19.8961 17.904 19.9261 17.508 19.7301C17.114 19.5301 15.836 19.1141 14.324 17.7601C13.144 16.7101 12.354 15.4101 12.118 15.0161C11.89 14.6201 12.096 14.4081 12.294 14.2101C12.468 14.0341 12.688 13.7461 12.886 13.5181C13.086 13.2901 13.152 13.1221 13.282 12.8581C13.412 12.5901 13.35 12.3621 13.252 12.1641C13.152 11.9661 12.362 10.0121 12.028 9.2241C11.708 8.4461 11.382 8.5541 11.138 8.5441C10.91 8.5301 10.644 8.5301 10.378 8.5301C10.1771 8.53509 9.97945 8.58155 9.79739 8.66656C9.61532 8.75157 9.45279 8.8733 9.32 9.0241C8.956 9.4201 7.938 10.3781 7.938 12.3321C7.938 14.2861 9.358 16.1641 9.558 16.4301C9.754 16.6961 12.346 20.6941 16.324 22.4141C17.264 22.8241 18.004 23.0661 18.582 23.2501C19.532 23.5541 20.39 23.5081 21.074 23.4101C21.834 23.2941 23.416 22.4501 23.75 21.5241C24.078 20.5961 24.078 19.8041 23.978 19.6381C23.88 19.4701 23.614 19.3721 23.218 19.1741Z" fill="url(#paint0_linear_18_75)"/>
</g>
<defs>
<linearGradient id="paint0_linear_18_75" x1="15.928" y1="0" x2="15.928" y2="32.0001" gradientUnits="userSpaceOnUse">
<stop stop-color="#C4141E"/>
<stop offset="1" stop-color="#AA0C15"/>
</linearGradient>
<clipPath id="clip0_18_75">
<rect width="32" height="32" fill="white"/>
</clipPath>
</defs>
</svg>

<svg xmlns="http://www.w3.org/2000/svg" width="32" height="32" fill="none"><g clip-path="url(#a)"><path fill="url(#b)" d="M27.202 4.652A15.708 15.708 0 0 0 15.988 0C7.254 0 .136 7.116.128 15.852c0 2.798.732 5.52 2.114 7.93L0 32l8.408-2.204a15.867 15.867 0 0 0 7.58 1.93h.008c8.736 0 15.852-7.116 15.86-15.86a15.796 15.796 0 0 0-4.654-11.214Zm-11.214 24.39c-2.362 0-4.68-.635-6.712-1.84l-.48-.288-4.988 1.308 1.332-4.866-.312-.502a13.12 13.12 0 0 1-2.014-7.01c0-7.252 5.914-13.168 13.182-13.168a13.12 13.12 0 0 1 9.32 3.862 13.113 13.113 0 0 1 3.856 9.32c-.008 7.278-5.922 13.184-13.184 13.184Zm7.23-9.868c-.394-.198-2.34-1.156-2.706-1.292-.364-.13-.63-.198-.89.198-.266.394-1.026 1.292-1.254 1.55-.228.266-.464.296-.86.1-.394-.2-1.672-.616-3.184-1.97-1.18-1.05-1.97-2.35-2.206-2.744-.228-.396-.022-.608.176-.806.174-.176.394-.464.592-.692.2-.228.266-.396.396-.66.13-.268.068-.496-.03-.694-.1-.198-.89-2.152-1.224-2.94-.32-.778-.646-.67-.89-.68-.228-.014-.494-.014-.76-.014a1.458 1.458 0 0 0-1.058.494c-.364.396-1.382 1.354-1.382 3.308 0 1.954 1.42 3.832 1.62 4.098.196.266 2.788 4.264 6.766 5.984.94.41 1.68.652 2.258.836.95.304 1.808.258 2.492.16.76-.116 2.342-.96 2.676-1.886.328-.928.328-1.72.228-1.886-.098-.168-.364-.266-.76-.464Z"/></g><defs><linearGradient id="b" x1="15.928" x2="15.928" y1="0" y2="32" gradientUnits="userSpaceOnUse"><stop stop-color="#C4141E"/><stop offset="1" stop-color="#AA0C15"/></linearGradient><clipPath id="a"><path fill="#fff" d="M0 0h32v32H0z"/></clipPath></defs></svg>
